brandFactory_export/1.Light/Documento_Archivo ok_1Light.svg

<?xml version="1.0" encoding="UTF-8"?>
<svg width="24px" height="24px" viewBox="0 0 24 24" version="1.1" xmlns="http://www.w3.org/2000/svg" xmlns:xlink="http://www.w3.org/1999/xlink">
    <title>1.Light/Documento_Archivo ok_1Light</title>
    <g id="Symbols" stroke="none" stroke-width="1" fill="none" fill-rule="evenodd">
        <g id="1.Light/Documento_Archivo-ok_1Light" fill="#5CB615" fill-rule="nonzero">
            <path d="M22.6420168,22.1815126 L22.6420168,7.91260504 L19.5630252,7.91260504 C18.3932773,7.91260504 17.3781513,7.53613445 16.6420168,6.81680672 C15.8957983,6.09747899 15.502521,5.1092437 15.502521,3.96302521 L15.502521,0.991596639 L7.27394958,0.991596639 C7.0487395,0.991596639 6.78319328,1.23697479 6.78319328,1.44537815 L6.78319328,6.51428571 C8.0907563,6.59159664 8.89747899,7.13613445 9.61344538,7.61008403 C10.4,8.13445378 11.0084034,8.54789916 12.1983193,8.3697479 C12.3462185,8.3394958 12.5042017,8.37983193 12.6117647,8.47731092 C12.7193277,8.56806723 12.7865546,8.70588235 12.7865546,8.84369748 C12.7966387,8.94117647 12.7966387,10.1882353 12.7495798,11.6470588 L19.502521,11.6470588 C19.7781513,11.6470588 19.9932773,11.8655462 19.9932773,12.1411765 C19.9932773,12.410084 19.7781513,12.6352941 19.502521,12.6352941 L12.7226891,12.6352941 C12.6823529,13.5529412 12.6252101,14.4806723 12.5344538,15.2033613 L19.5327731,15.2033613 C19.8084034,15.2033613 20.0235294,15.4218487 20.0235294,15.697479 C20.0235294,15.9630252 19.8084034,16.1915966 19.5327731,16.1915966 L12.3294118,16.1915966 C11.9865546,17.1092437 11.1495798,17.989916 10.2151261,18.7294118 L19.5361345,18.7294118 C19.8117647,18.7294118 20.0268908,18.9478992 20.0268908,19.2235294 C20.0268908,19.492437 19.8117647,19.7176471 19.5361345,19.7176471 L8.82689076,19.7176471 C7.94285714,20.2789916 7.15630252,20.6857143 6.78319328,20.8739496 L6.78319328,22.1882353 C6.78319328,22.4067227 7.02857143,22.6420168 7.27394958,22.6420168 L22.1579832,22.6420168 C22.4033613,22.6352941 22.6420168,22.4067227 22.6420168,22.1815126 Z M1.30756303,15.5226891 C1.60336134,17.2403361 4.90420168,19.2067227 6.4,19.9462185 C6.9210084,19.6907563 7.65042017,19.2840336 8.40672269,18.8 C9.82184874,17.8722689 11.297479,16.6453782 11.492437,15.5226891 C11.7579832,13.9831933 11.805042,10.6756303 11.805042,9.38151261 C10.5579832,9.44201681 9.80168067,8.91764706 9.07226891,8.43361345 C8.33613445,7.9394958 7.63697479,7.47563025 6.39663866,7.47563025 L6.38655462,7.47563025 C5.14621849,7.47563025 4.4605042,7.9394958 3.7210084,8.43361345 C2.97478992,8.92773109 2.20840336,9.45210084 0.978151261,9.39159664 C0.991596639,10.6957983 1.04201681,13.9932773 1.30756303,15.5226891 Z M22.3831933,6.92436975 L16.4840336,1.19663866 L16.4840336,3.96302521 C16.4840336,4.8302521 16.7798319,5.57310924 17.3310924,6.10756303 C17.8823529,6.65210084 18.6588235,6.92773109 19.5630252,6.92773109 L22.3831933,6.92773109 L22.3831933,6.92436975 Z M23.3781513,6.51764706 C23.5361345,6.66554622 23.6235294,6.88067227 23.6235294,7.09915966 L23.6235294,22.1815126 C23.6235294,22.9613445 22.9546218,23.6235294 22.1579832,23.6235294 L7.27394958,23.6235294 C6.48739496,23.6235294 5.79831933,22.9411765 5.79831933,22.1815126 L5.79831933,20.7596639 C4.51092437,20.107563 0.72605042,17.9932773 0.332773109,15.6907563 C-0.0100840336,13.687395 -3.11235605e-05,9.03529412 -3.11235605e-05,8.83697479 C-3.11235605e-05,8.68907563 0.0672268908,8.54117647 0.188235294,8.45378151 C0.305882353,8.36302521 0.463865546,8.32605042 0.611764706,8.36302521 C1.78151261,8.5512605 2.4,8.12773109 3.17647059,7.60336134 C3.85546218,7.14957983 4.62184874,6.64537815 5.80168067,6.52773109 L5.80168067,1.44201681 C5.80168067,0.692436975 6.50084034,0 7.27731092,0 L16.3327731,0 C16.5478992,0 16.7563025,0.0773109244 16.9142857,0.228571429 L23.3781513,6.51764706 Z M5.58319328,16.1815126 C5.45882353,16.1815126 5.33109244,16.1344538 5.23361345,16.0369748 L3.43865546,14.2352941 C3.24705882,14.0436975 3.24705882,13.7310924 3.43865546,13.5361345 C3.6302521,13.3445378 3.94285714,13.3445378 4.13445378,13.5361345 L5.58319328,14.9882353 L9.2302521,11.3243697 C9.42184874,11.1327731 9.73445378,11.1327731 9.92605042,11.3243697 C10.1176471,11.5159664 10.1176471,11.8285714 9.92605042,12.0235294 L5.92941176,16.0369748 C5.83529412,16.1344538 5.70756303,16.1815126 5.58319328,16.1815126 L5.58319328,16.1815126 Z" id="Documento_Archivo-ok_1Light"></path>
        </g>
    </g>
</svg>

<svg width="24" height="24" viewBox="0 0 24 24" xmlns="http://www.w3.org/2000/svg"><path d="M22.642 22.182V7.912h-3.079c-1.17 0-2.185-.376-2.921-1.095-.746-.72-1.14-1.708-1.14-2.854V.992H7.275c-.225 0-.49.245-.49.453v5.07c1.307.077 2.113.621 2.83 1.095.786.524 1.394.938 2.584.76a.48.48 0 01.414.107.49.49 0 01.175.367c.01.097.01 1.344-.037 2.803h6.753c.275 0 .49.219.49.494a.492.492 0 01-.49.494h-6.78c-.04.918-.098 1.846-.189 2.568h6.999c.275 0 .49.219.49.494a.494.494 0 01-.49.495h-7.204c-.342.917-1.18 1.798-2.114 2.537h9.321c.276 0 .49.219.49.495a.492.492 0 01-.49.494H8.826c-.883.561-1.67.968-2.043 1.156v1.314c0 .219.246.454.49.454h14.885c.245-.007.484-.235.484-.46zm-21.334-6.66c.295 1.718 3.596 3.685 5.092 4.424.521-.255 1.25-.662 2.007-1.146 1.415-.928 2.89-2.155 3.085-3.277.266-1.54.313-4.847.313-6.141-1.247.06-2.003-.464-2.733-.948-.736-.495-1.435-.958-2.675-.958h-.01c-1.24 0-1.926.463-2.666.958-.746.494-1.513 1.018-2.743.958.014 1.304.064 4.601.33 6.13zm21.075-8.598l-5.899-5.727v2.766c0 .867.296 1.61.847 2.145.551.544 1.328.82 2.232.82h2.82v-.004zm.995-.406a.8.8 0 01.246.581v15.083c0 .78-.67 1.442-1.466 1.442H7.274c-.787 0-1.476-.683-1.476-1.442V20.76C4.511 20.108.726 17.993.333 15.69-.01 13.688 0 9.036 0 8.838c0-.148.067-.296.188-.383a.501.501 0 01.424-.091c1.17.188 1.788-.235 2.564-.76.68-.453 1.446-.958 2.626-1.075V1.442C5.802.692 6.5 0 7.277 0h9.056c.215 0 .423.077.581.229l6.464 6.289zM5.583 16.182a.494.494 0 01-.35-.145L3.44 14.235a.493.493 0 11.696-.7l1.448 1.453 3.647-3.664a.493.493 0 11.696.7L5.93 16.037a.48.48 0 01-.346.145z" fill="#5CB615" fill-rule="nonzero"/></svg>
